assets/images/pages/index/motivos-quatro.svg

<svg xmlns="http://www.w3.org/2000/svg" viewBox="0 0 300 300"><path d="M213.7 47.4c-41.6 0-75.3 33.7-75.3 75.3s33.7 75.3 75.3 75.3 75.3-33.7 75.3-75.3-33.7-75.3-75.3-75.3zm0 109.2c-18.7 0-33.9-15.2-33.9-33.9s15.2-33.9 33.9-33.9 33.9 15.2 33.9 33.9-15.2 33.9-33.9 33.9z" fill="#d3094c"/><path d="M194.8 229.5h-23.4v37.4h-54.1v-37.4H11V180L85.5 33H143L68.5 180h48.8v-50h54.1v50.1h23.4v49.4z" fill="#bf0e49"/></svg>

<?xml version="1.0" encoding="utf-8"?>
<!-- Generator: Adobe Illustrator 25.0.0, SVG Export Plug-In . SVG Version: 6.00 Build 0)  -->
<svg version="1.1" id="Camada_1" xmlns="http://www.w3.org/2000/svg" xmlns:xlink="http://www.w3.org/1999/xlink" x="0px" y="0px"
	 viewBox="0 0 300 300" style="enable-background:new 0 0 300 300;" xml:space="preserve">
<style type="text/css">
	.st0{fill:#D3094C;}
	.st1{fill:#BF0E49;}
</style>
<path class="st0" d="M213.7,47.4c-41.6,0-75.3,33.7-75.3,75.3s33.7,75.3,75.3,75.3s75.3-33.7,75.3-75.3S255.3,47.4,213.7,47.4z
	 M213.7,156.6c-18.7,0-33.9-15.2-33.9-33.9s15.2-33.9,33.9-33.9s33.9,15.2,33.9,33.9S232.4,156.6,213.7,156.6z"/>
<g>
	<path class="st1" d="M194.8,229.5h-23.4v37.4h-54.1v-37.4H11v-49.5l74.5-147H143l-74.5,147h48.8V130h54.1v50.1h23.4V229.5z"/>
</g>
</svg>
